images/rules_ico_1.svg

<svg width="48" height="48" viewBox="0 0 48 48" fill="none" xmlns="http://www.w3.org/2000/svg">
<rect width="48" height="48" rx="12" fill="#222222"/>
<path d="M34.386 33.3826H28.6551V34.8806H34.386V33.3826Z" fill="white"/>
<path fill-rule="evenodd" clip-rule="evenodd" d="M28.9551 26.1621L35.7205 28.544C36.68 28.8837 37.5083 29.499 38.0948 30.3068C38.6811 31.1146 38.9968 32.0765 39 33.0629V39H9V33.0729C9.00229 32.0851 9.31838 31.1218 9.90576 30.3126C10.4931 29.5037 11.3232 28.8881 12.2844 28.549L19.1274 26.1521V24.3545C18.6515 23.6495 18.3311 22.8574 18.1862 22.0275C17.3717 21.5611 16.7993 20.784 16.6102 19.8881C16.4212 18.9923 16.6328 18.061 17.193 17.324C17.105 16.8846 17.0599 16.4382 17.0585 15.9907C17.0267 14.1703 17.7437 12.4123 19.053 11.1018C20.362 9.79138 22.1558 9.03539 24.0413 9C25.9258 9.03545 27.7188 9.79059 29.0278 11.0999C30.3368 12.4095 31.0546 14.1664 31.024 15.9857C31.0226 16.4332 30.9775 16.8796 30.8895 17.319C31.4498 18.056 31.6613 18.9873 31.4723 19.8831C31.2833 20.7789 30.7108 21.5561 29.8963 22.0226C29.7514 22.8524 29.431 23.6446 28.9551 24.3495V26.1621ZM18.6102 18.0379C18.2837 18.3579 18.0984 18.7875 18.0929 19.2364C18.0935 19.5797 18.1984 19.9151 18.3953 20.2013C18.5922 20.4872 18.8722 20.7107 19.1998 20.8441L19.6241 21.0189L19.6705 21.4633C19.7531 22.2641 20.051 23.0298 20.5342 23.6855L20.6791 23.8803V26.8013C21.375 27.9568 22.6566 28.6666 24.0411 28.6638C25.4292 28.6638 26.7136 27.9555 27.4188 26.8013V23.8803L27.5637 23.6855C28.0469 23.0299 28.3445 22.2642 28.4273 21.4633L28.4741 21.0189L28.8981 20.8441C29.4459 20.6221 29.8454 20.1536 29.9664 19.5922C30.087 19.0304 29.9141 18.4475 29.5034 18.0329L29.2136 17.7384L29.286 17.319C29.5193 16.4276 29.5193 15.4938 29.286 14.6025C27.5378 14.1132 26.2239 13.1794 25.7583 12.0559C25.0757 13.7387 22.4895 14.987 19.386 14.987H18.693C18.5432 15.7689 18.5698 16.5728 18.7707 17.3438L18.8688 17.7384L18.6102 18.0379ZM10.5464 37.5021H37.4429L37.4273 33.058C37.4262 32.3783 37.2094 31.7151 36.8062 31.1581C36.4033 30.6011 35.8329 30.1767 35.1722 29.9418L28.6651 27.6499C27.6742 29.2059 25.9175 30.1539 24.0255 30.1539C22.1335 30.1539 20.3771 29.2059 19.386 27.6499L12.8119 29.9569C12.1492 30.1901 11.5768 30.6137 11.1716 31.171C10.7663 31.7282 10.5481 32.392 10.5464 33.0727V37.5021Z" fill="white"/>
</svg>

<svg width="48" height="48" fill="none" xmlns="http://www.w3.org/2000/svg"><rect width="48" height="48" rx="12" fill="#222"/><path d="M34.386 33.383h-5.73v1.498h5.73v-1.498z" fill="#fff"/><path fill-rule="evenodd" clip-rule="evenodd" d="M28.955 26.162l6.766 2.382a4.99 4.99 0 012.374 1.763c.586.808.902 1.77.905 2.756V39H9v-5.927a4.714 4.714 0 01.906-2.76 4.983 4.983 0 012.378-1.764l6.843-2.397v-1.797a6.005 6.005 0 01-.94-2.328 3.246 3.246 0 01-1.577-2.139 3.153 3.153 0 01.583-2.564 6.899 6.899 0 01-.135-1.333 6.748 6.748 0 011.995-4.89A7.244 7.244 0 0124.041 9a7.245 7.245 0 014.987 2.1 6.749 6.749 0 011.996 4.886 6.899 6.899 0 01-.134 1.333c.56.737.771 1.668.582 2.564a3.246 3.246 0 01-1.576 2.14 6.004 6.004 0 01-.94 2.326v1.813zM18.61 18.038c-.326.32-.512.75-.517 1.198 0 .344.105.68.302.965.197.286.477.51.805.643l.424.175.047.444c.082.801.38 1.567.863 2.223l.145.194v2.921c.696 1.156 1.978 1.866 3.362 1.863 1.388 0 2.673-.709 3.378-1.863v-2.92l.145-.195c.483-.656.78-1.422.863-2.223l.047-.444.424-.175c.548-.222.947-.69 1.068-1.252a1.703 1.703 0 00-.463-1.56l-.29-.294.073-.419a5.36 5.36 0 000-2.716c-1.748-.49-3.062-1.424-3.528-2.547-.682 1.683-3.268 2.931-6.372 2.931h-.693a5.348 5.348 0 00.078 2.357l.098.394-.259.3zm-8.064 19.464h26.897l-.016-4.444a3.247 3.247 0 00-.62-1.9 3.432 3.432 0 00-1.635-1.216l-6.507-2.292c-.99 1.556-2.747 2.504-4.64 2.504-1.891 0-3.648-.948-4.639-2.504l-6.574 2.307a3.433 3.433 0 00-1.64 1.214 3.245 3.245 0 00-.626 1.902v4.43z" fill="#fff"/></svg>
